sites/all/themes/scott/images/gallery-w.svg

<svg viewBox="0 0 600 600" xmlns="http://www.w3.org/2000/svg"><g fill="#fff"><path d="m300 62.05a193.56 193.56 0 0 0 -10.15-62.05h-238.33a51.52 51.52 0 0 0 -51.52 51.52v172.55a192.78 192.78 0 0 0 105.29 31.73c107.08.52 194.71-86.67 194.71-193.75z"/><path d="m302.14 505.82-78.55-114.88-142.95 209.06h467.84a51.52 51.52 0 0 0 51.52-51.52v-190.85l-98.26-143.71z"/></g></svg>

<svg id="Layer_1" data-name="Layer 1" xmlns="http://www.w3.org/2000/svg" viewBox="0 0 600 600"><defs><style>.cls-1{fill:#fff;}</style></defs><path class="cls-1" d="M300,62.05A193.56,193.56,0,0,0,289.85,0H51.52A51.52,51.52,0,0,0,0,51.52V224.07A192.78,192.78,0,0,0,105.29,255.8C212.37,256.32,300,169.13,300,62.05Z"/><path class="cls-1" d="M302.14,505.82,223.59,390.94,80.64,600H548.48A51.52,51.52,0,0,0,600,548.48V357.63L501.74,213.92Z"/></svg>
